svgs/sharp-light/scalpel-line-dashed.svg

<svg xmlns="http://www.w3.org/2000/svg" viewBox="0 0 576 512"><!--! Font Awesome Pro 6.6.0 by @fontawesome - https://fontawesome.com License - https://fontawesome.com/license (Commercial License) Copyright 2024 Fonticons, Inc. --><path d="M337 256l-105.8 0L420.2 43.5C426.7 36.2 436 32 445.8 32C464.7 32 480 47.3 480 66.2l0 4.2c0 9-3.2 17.7-8.9 24.6L337 256zm15 32L495.7 115.6C506.2 102.9 512 87 512 70.5l0-4.2C512 29.7 482.3 0 445.8 0c-18.9 0-36.9 8.1-49.5 22.2L188.4 256 160 288l42.8 0L352 288zM178.3 320L33 476.4 0 512s19.5-1 48.8-5.6c83.2-13 245.6-55.1 268.5-186.4l-32.7 0c-13.9 63.8-69.7 103.2-135.9 128c-21.5 8.1-43.1 14.2-63.1 18.7L222 320l-43.7 0zM240 480l-16 0 0 32 16 0 64 0 16 0 0-32-16 0-64 0zm128 0l-16 0 0 32 16 0 64 0 16 0 0-32-16 0-64 0zm128 0l-16 0 0 32 16 0 64 0 16 0 0-32-16 0-64 0z"/></svg>

<svg xmlns="http://www.w3.org/2000/svg" viewBox="0 0 576 512"><!--! Font Awesome Pro 6.4.0 by @fontawesome - https://fontawesome.com License - https://fontawesome.com/license (Commercial License) Copyright 2023 Fonticons, Inc. --><path d="M337 256H231.3L420.2 43.5C426.7 36.2 436 32 445.8 32C464.7 32 480 47.3 480 66.2v4.2c0 9-3.2 17.7-8.9 24.6L337 256zm15 32L495.7 115.6C506.2 102.9 512 87 512 70.5V66.2C512 29.7 482.3 0 445.8 0c-18.9 0-36.9 8.1-49.5 22.2L188.4 256 160 288h42.8H352zM178.3 320L33 476.4 0 512s19.5-1 48.8-5.6c83.2-13 245.6-55.1 268.5-186.4H284.6c-13.9 63.8-69.7 103.2-135.9 128c-21.5 8.1-43.1 14.2-63.1 18.7L222 320H178.3zM240 480H224v32h16 64 16V480H304 240zm128 0H352v32h16 64 16V480H432 368zm128 0H480v32h16 64 16V480H560 496z"/></svg>
